public/images/svgs/logo-type.svg

<svg width="138" height="55" viewBox="0 0 138 55" fill="none" xmlns="http://www.w3.org/2000/svg">
<path d="M9.97653 1.56084C6.13015 2.7264 3.68246 4.94098 1.70099 9.07875C-2.14539 17.1212 0.710258 25.1636 8.46129 28.0775C11.7249 29.2431 20.4084 29.7676 21.9236 28.7769C22.2733 28.5437 22.6229 26.3292 22.7395 23.5318C22.9726 17.704 22.7395 17.4708 17.3196 17.704C13.4732 17.8788 12.4242 18.753 14.7554 19.802C16.4454 20.5596 17.1448 22.6576 16.6203 24.9305C16.2706 26.2126 15.9792 26.3874 14.6388 26.0378C10.1514 24.9305 8.46129 22.0748 8.46129 15.5477C8.40301 11.7013 8.6944 10.4774 9.80169 8.49597C12.4242 3.83369 7.29571 4.18336 73.4417 4.18336C115.868 4.18336 132.653 4.3582 133.235 4.82443C134.11 5.58205 134.343 18.753 133.468 18.753C133.177 18.753 131.079 16.247 128.806 13.2165L124.668 7.68007H121.172C119.249 7.68007 117.675 7.79663 117.675 7.97146C117.675 8.1463 118.083 8.90392 118.607 9.66154C119.307 10.8271 119.423 12.5172 119.249 18.8695C119.132 23.1238 118.841 27.2033 118.607 27.961C118.141 29.2431 118.2 29.3014 120.356 29.1265L122.629 28.9517L122.804 22.949C122.862 19.6854 123.211 17.0046 123.503 17.0046C123.736 17.0046 125.717 19.6271 127.815 22.8325C131.72 28.8351 132.653 29.5345 136.091 29.1265L137.781 28.9517L137.956 16.7715C138.131 3.0178 137.956 2.37673 134.168 1.32772C132.711 0.919775 112.022 0.686661 72.2179 0.744938C24.0799 0.744938 12.0163 0.919775 9.97653 1.56084Z" fill="#D1D5DB"/>
<path d="M33.2296 7.68023C30.5488 8.32129 26.7607 11.0604 25.362 13.4498C24.6627 14.7319 24.2548 16.5385 24.1965 18.7531C24.1382 21.5505 24.4296 22.4247 25.8283 24.2313C27.9846 27.0287 30.3157 28.4856 34.2786 29.3015C40.5144 30.5836 47.4496 28.0194 49.8973 23.532C54.6178 14.965 48.79 6.92261 38.0085 7.15572C36.4932 7.214 34.3369 7.44711 33.2296 7.68023ZM40.8058 11.3518C41.3303 11.7597 42.3211 12.9836 43.0204 14.0909C46.9833 20.618 40.2813 29.4764 34.6866 25.1055C30.5488 21.8419 30.2574 15.6061 34.1038 12.0511C35.8522 10.4193 39.174 10.1279 40.8058 11.3518Z" fill="#D1D5DB"/>
<path d="M73.0918 18.2285V29.3597L80.3766 29.1266C88.7687 28.8352 91.5661 27.8444 94.072 24.1729C95.9369 21.3755 96.1118 15.9556 94.4217 13.1583C91.6826 8.67085 87.6031 7.15561 78.6282 7.09733H73.0918V18.2285ZM86.5541 12.5755C88.3607 14.3821 88.5356 14.9066 88.5356 17.8206C88.5356 23.2404 86.6124 25.7464 82.4746 25.7464H80.3766V18.5782C80.3766 14.6152 80.5514 11.1768 80.7845 11.002C81.8336 9.89469 84.6892 10.7106 86.5541 12.5755Z" fill="#D1D5DB"/>
<path d="M98.3264 17.4126C98.443 23.1238 98.6178 28.1358 98.7344 28.4855C98.9092 29.0682 101.066 29.2431 106.835 29.2431C114.295 29.2431 114.761 29.1848 115.577 27.9609C116.859 26.096 116.801 24.2894 115.519 24.9305C114.936 25.2219 112.663 25.455 110.39 25.455H106.311V22.5411V19.6271L109.05 19.4523C111.089 19.3357 112.08 18.9278 112.721 17.9953C113.187 17.296 113.595 16.5384 113.595 16.3053C113.595 16.0722 111.964 15.839 109.982 15.7225L106.311 15.5476L106.136 13.4496C105.903 10.4774 106.952 9.7198 110.507 10.5357C112.896 11.0602 113.421 11.0019 114.062 10.186C114.411 9.66153 114.761 8.72907 114.761 8.14629C114.761 7.15555 114.062 7.09727 106.485 7.09727H98.1516L98.3264 17.4126Z" fill="#D1D5DB"/>
<path d="M54.0349 17.7039C54.1515 23.4735 54.5012 28.0775 54.8508 28.4855C55.2588 29.01 57.4151 29.2431 61.6694 29.2431C68.2549 29.2431 69.4787 28.8351 70.0032 26.5623C70.2946 25.3384 70.1198 25.2801 66.1569 25.3967L62.0191 25.455V16.5384V7.68006H57.9396H53.8601L54.0349 17.7039Z" fill="#D1D5DB"/>
<path d="M5.95519 33.5558C2.92471 35.0127 0.943242 37.2856 0.185623 40.1995C-0.397161 42.4141 0.535293 47.7174 1.8757 49.6989C4.32339 53.3122 10.5592 55.1188 18.0188 54.4777C21.399 54.1281 21.6321 54.0698 22.448 52.0883C22.9142 50.981 23.1473 49.932 23.0308 49.7572C22.8559 49.6406 21.5155 49.932 20.0003 50.4565C16.6201 51.6221 14.3473 51.6221 12.3075 50.5731C8.63599 48.6499 6.82936 45.0366 7.64526 41.3068C8.92738 35.4207 12.5406 33.9055 18.7764 36.528C19.7089 36.9359 19.8254 36.7028 19.6506 34.7213L19.4758 32.4485L14.2307 32.2737C9.685 32.1571 8.57771 32.3319 5.95519 33.5558Z" fill="#D1D5DB"/>
<path d="M34.3953 33.0312C28.1012 34.7796 24.4879 39.5584 25.1873 45.328C25.8866 51.5638 31.8893 55.3519 40.3396 54.7108C49.3145 54.128 54.7927 46.4353 51.5874 38.9756C49.3728 33.7306 41.5635 31.0498 34.3953 33.0312ZM42.9039 37.6935C44.8854 39.9664 45.643 43.1134 44.8854 45.969C42.9039 53.3704 34.8032 53.1956 32.5303 45.6194C30.4906 38.8008 38.4747 32.6816 42.9039 37.6935Z" fill="#D1D5DB"/>
<path d="M55.2592 32.5651C55.2009 32.8565 55.2592 33.2645 55.3757 33.6141C55.4923 33.9055 55.7254 38.6261 55.9003 44.1043L56.1916 54.0116L59.9797 54.1864L63.8261 54.3613L63.7678 49.5242V44.687L66.7983 44.5122C69.9454 44.3374 71.4606 43.2884 70.8195 41.7731C70.5864 41.1321 69.5957 40.899 66.9732 40.899H63.4764V38.3347C63.4764 35.1877 64.3506 34.7214 68.4884 35.6539C70.9944 36.2367 71.4023 36.1784 72.1017 35.2459C72.5096 34.6632 72.7427 33.8473 72.6844 33.3228C72.5096 32.6234 71.0526 32.4486 63.8844 32.2737C59.1638 32.2155 55.2592 32.332 55.2592 32.5651Z" fill="#D1D5DB"/>
<path d="M76.2389 32.5651C76.1806 32.8565 76.2389 33.2645 76.3555 33.6141C76.472 33.9055 76.7052 38.6261 76.88 44.1043L77.1714 54.0116L80.9595 54.1864L84.8059 54.3613L84.7476 49.5242V44.687L87.7781 44.5122C90.9251 44.3374 92.4403 43.2884 91.7993 41.7731C91.5661 41.1321 90.5754 40.899 87.9529 40.899H84.4562V38.3347C84.4562 35.1877 85.3304 34.7214 89.4681 35.6539C91.9741 36.2367 92.382 36.1784 93.0814 35.2459C93.4893 34.6632 93.7225 33.8473 93.6642 33.3228C93.4893 32.6234 92.0324 32.4486 84.8641 32.2737C80.1436 32.2155 76.2389 32.332 76.2389 32.5651Z" fill="#D1D5DB"/>
<path d="M97.2191 32.565C97.1608 32.8564 97.2191 33.2643 97.2774 33.614C97.3939 33.9054 97.3939 38.3928 97.3939 43.4631C97.3356 49.4075 97.5688 53.079 97.9767 53.5452C98.4429 54.128 100.658 54.3029 106.369 54.3029H114.178L115.169 52.2631C116.393 49.7571 115.985 49.2909 113.595 50.5148C112.43 51.0975 110.74 51.3889 108.758 51.2724L105.728 51.0975L105.553 47.7174L105.378 44.3955H108.234C111.206 44.3955 112.43 43.6962 112.43 41.9478C112.43 41.0737 111.905 40.8988 108.875 40.8988H105.378L105.553 38.1015C105.728 35.071 106.077 34.8961 110.798 35.8286C112.663 36.2365 113.071 36.12 113.595 35.071C114.994 32.4485 114.236 32.1571 105.436 32.1571C100.949 32.1571 97.2191 32.3319 97.2191 32.565Z" fill="#D1D5DB"/>
<path d="M119.307 41.8896C119.365 47.3094 119.598 52.2631 119.715 52.9625C120.006 54.3029 120.181 54.3029 128.223 54.3029H136.382L137.256 52.2631C138.364 49.524 138.364 49.524 135.974 50.5148C133.41 51.5638 128.515 51.6803 127.757 50.6313C127.466 50.2816 127.291 48.9995 127.349 47.8922C127.407 46.7849 127.524 45.5028 127.524 45.0949C127.582 44.6286 128.573 44.3955 130.438 44.3955C133.41 44.3955 134.984 43.3465 134.401 41.8313C134.168 41.2485 133.002 40.8988 130.671 40.7823L127.291 40.6074L127.116 38.5094C126.883 35.4789 127.932 34.7796 131.72 35.5955C134.401 36.1783 134.809 36.12 135.508 35.2458C135.974 34.663 136.266 33.7889 136.149 33.3226C136.033 32.6233 134.517 32.4485 127.582 32.2736L119.132 32.0988L119.307 41.8896Z" fill="#D1D5DB"/>
</svg>

<svg xmlns="http://www.w3.org/2000/svg" width="138" height="55" fill="none"><path fill="#D1D5DB" d="M9.977 1.56C6.13 2.727 3.682 4.942 1.7 9.08c-3.846 8.042-.99 16.085 6.76 18.998 3.264 1.166 11.947 1.69 13.463.7.35-.233.699-2.448.816-5.245.233-5.828 0-6.061-5.42-5.828-3.847.175-4.896 1.049-2.565 2.098 1.69.758 2.39 2.856 1.865 5.128-.35 1.283-.64 1.457-1.981 1.108-4.488-1.108-6.178-3.963-6.178-10.49-.058-3.847.233-5.07 1.34-7.052 2.623-4.662-2.505-4.313 63.64-4.313 42.427 0 59.212.175 59.794.641.875.758 1.108 13.929.233 13.929-.291 0-2.389-2.506-4.662-5.537l-4.138-5.536h-3.496c-1.923 0-3.497.117-3.497.291 0 .175.408.933.932 1.69.7 1.166.816 2.856.642 9.208-.117 4.255-.408 8.334-.642 9.092-.466 1.282-.407 1.34 1.749 1.166l2.273-.175.175-6.003c.058-3.264.407-5.944.699-5.944.233 0 2.214 2.622 4.312 5.828 3.905 6.002 4.838 6.702 8.276 6.294l1.69-.175.175-12.18c.175-13.754 0-14.395-3.788-15.444-1.457-.408-22.146-.641-61.95-.583-48.138 0-60.202.175-62.241.816Z"/><path fill="#D1D5DB" d="M33.23 7.68c-2.681.641-6.47 3.38-7.868 5.77-.7 1.282-1.107 3.088-1.165 5.303-.059 2.797.233 3.672 1.631 5.478 2.157 2.798 4.488 4.255 8.45 5.07 6.236 1.283 13.172-1.282 15.62-5.769 4.72-8.567-1.108-16.61-11.89-16.376-1.515.058-3.671.291-4.778.524Zm7.576 3.672c.524.408 1.515 1.632 2.214 2.739 3.963 6.527-2.739 15.385-8.333 11.014-4.138-3.263-4.43-9.499-.583-13.054 1.748-1.632 5.07-1.923 6.702-.7ZM73.092 18.229v11.13l7.285-.232c8.392-.292 11.19-1.283 13.695-4.954 1.865-2.797 2.04-8.217.35-11.015-2.74-4.487-6.819-6.002-15.794-6.06h-5.536v11.13Zm13.462-5.653c1.807 1.806 1.982 2.33 1.982 5.245 0 5.42-1.924 7.925-6.061 7.925h-2.098v-7.168c0-3.963.174-7.401.407-7.576 1.05-1.107 3.905-.291 5.77 1.573ZM98.326 17.413c.117 5.71.292 10.723.408 11.072.175.583 2.332.758 8.101.758 7.46 0 7.926-.058 8.742-1.282 1.282-1.865 1.224-3.672-.058-3.03-.583.29-2.856.524-5.129.524h-4.079v-5.828l2.739-.175c2.039-.116 3.03-.524 3.671-1.457.466-.699.874-1.457.874-1.69 0-.233-1.631-.466-3.613-.582l-3.671-.175-.175-2.098c-.233-2.973.816-3.73 4.371-2.914 2.389.524 2.914.466 3.555-.35.349-.524.699-1.457.699-2.04 0-.99-.699-1.049-8.276-1.049h-8.333l.174 10.316ZM54.035 17.704c.117 5.77.466 10.373.816 10.781.408.525 2.564.758 6.818.758 6.586 0 7.81-.408 8.334-2.68.292-1.225.117-1.283-3.846-1.166l-4.138.058V7.68H53.86l.175 10.024ZM5.955 33.556C2.925 35.013.943 37.286.185 40.2c-.582 2.214.35 7.517 1.69 9.499 2.448 3.613 8.684 5.42 16.144 4.779 3.38-.35 3.613-.408 4.429-2.39.466-1.107.7-2.156.583-2.33-.175-.117-1.515.174-3.03.698-3.38 1.166-5.654 1.166-7.694.117-3.671-1.923-5.478-5.536-4.662-9.266 1.282-5.886 4.896-7.401 11.131-4.779.933.408 1.05.175.875-1.807l-.175-2.272-5.245-.175c-4.546-.117-5.653.058-8.276 1.282ZM34.395 33.031c-6.294 1.749-9.907 6.527-9.208 12.297.7 6.236 6.702 10.024 15.153 9.383 8.974-.583 14.453-8.276 11.247-15.735-2.214-5.245-10.024-7.926-17.192-5.945Zm8.509 4.663c1.981 2.272 2.739 5.42 1.981 8.275-1.981 7.401-10.082 7.227-12.355-.35-2.04-6.818 5.945-12.937 10.374-7.925ZM55.26 32.565c-.06.291 0 .7.116 1.05.116.29.35 5.011.524 10.49l.292 9.907 3.788.174 3.846.175-.058-4.837v-4.837l3.03-.175c3.147-.175 4.663-1.224 4.022-2.739-.234-.64-1.224-.874-3.847-.874h-3.497v-2.564c0-3.147.875-3.614 5.012-2.681 2.506.583 2.914.524 3.614-.408.408-.583.64-1.399.582-1.923-.174-.7-1.631-.874-8.8-1.05-4.72-.058-8.625.059-8.625.292ZM76.239 32.565c-.058.291 0 .7.117 1.05.116.29.35 5.011.524 10.49l.291 9.907 3.788.174 3.847.175-.058-4.837v-4.837l3.03-.175c3.147-.175 4.662-1.224 4.021-2.739-.233-.64-1.224-.874-3.846-.874h-3.497v-2.564c0-3.147.874-3.614 5.012-2.681 2.506.583 2.914.524 3.613-.408.408-.583.641-1.399.583-1.923-.175-.7-1.632-.874-8.8-1.05-4.72-.058-8.625.059-8.625.292ZM97.22 32.565c-.06.291 0 .7.057 1.049.117.291.117 4.779.117 9.85-.058 5.944.175 9.615.583 10.081.466.583 2.681.758 8.392.758h7.809l.991-2.04c1.224-2.506.816-2.972-1.574-1.748-1.165.582-2.855.874-4.837.757l-3.03-.175-.175-3.38-.175-3.322h2.856c2.972 0 4.196-.699 4.196-2.447 0-.874-.525-1.05-3.555-1.05h-3.497l.175-2.797c.175-3.03.524-3.205 5.245-2.272 1.865.407 2.273.291 2.797-.758 1.399-2.622.641-2.914-8.159-2.914-4.487 0-8.217.175-8.217.408ZM119.307 41.89c.058 5.42.291 10.373.408 11.072.291 1.34.466 1.34 8.508 1.34h8.159l.874-2.039c1.108-2.739 1.108-2.739-1.282-1.748-2.564 1.049-7.459 1.165-8.217.116-.291-.35-.466-1.632-.408-2.739.058-1.107.175-2.39.175-2.797.058-.466 1.049-.7 2.914-.7 2.972 0 4.546-1.049 3.963-2.564-.233-.583-1.399-.932-3.73-1.049l-3.38-.175-.175-2.098c-.233-3.03.816-3.73 4.604-2.913 2.681.582 3.089.524 3.788-.35.466-.583.758-1.457.641-1.923-.116-.7-1.632-.874-8.567-1.05l-8.45-.174.175 9.79Z"/></svg>
